src/assets/duotone/Calendar1.svg

<svg width="24" height="24" viewBox="0 0 24 24"  xmlns="http://www.w3.org/2000/svg">
<path fill-rule="evenodd" clip-rule="evenodd" d="M8 1.25C8.41421 1.25 8.75 1.58579 8.75 2V5C8.75 5.41421 8.41421 5.75 8 5.75C7.58579 5.75 7.25 5.41421 7.25 5V2C7.25 1.58579 7.58579 1.25 8 1.25Z" />
<path fill-rule="evenodd" clip-rule="evenodd" d="M16 1.25C16.4142 1.25 16.75 1.58579 16.75 2V5C16.75 5.41421 16.4142 5.75 16 5.75C15.5858 5.75 15.25 5.41421 15.25 5V2C15.25 1.58579 15.5858 1.25 16 1.25Z" />
<path opacity="0.4" d="M21.5 8.37V17.13C21.5 17.29 21.49 17.45 21.48 17.6H2.52C2.51 17.45 2.5 17.29 2.5 17.13V8.37C2.5 5.68 4.68 3.5 7.37 3.5H16.63C19.32 3.5 21.5 5.68 21.5 8.37Z" />
<path d="M21.48 17.5996C21.24 20.0696 19.16 21.9996 16.63 21.9996H7.37002C4.84002 21.9996 2.76002 20.0696 2.52002 17.5996H21.48Z" />
<path d="M13.53 11.6198C13.98 11.3098 14.26 10.8498 14.26 10.2298C14.26 8.92976 13.22 8.25977 12 8.25977C10.78 8.25977 9.73 8.92976 9.73 10.2298C9.73 10.8498 10.02 11.3198 10.46 11.6198C9.85 11.9798 9.5 12.5598 9.5 13.2398C9.5 14.4798 10.45 15.2498 12 15.2498C13.54 15.2498 14.5 14.4798 14.5 13.2398C14.5 12.5598 14.15 11.9698 13.53 11.6198ZM12 9.49977C12.52 9.49977 12.9 9.78977 12.9 10.2898C12.9 10.7798 12.52 11.0898 12 11.0898C11.48 11.0898 11.1 10.7798 11.1 10.2898C11.1 9.78977 11.48 9.49977 12 9.49977ZM12 13.9998C11.34 13.9998 10.86 13.6698 10.86 13.0698C10.86 12.4698 11.34 12.1498 12 12.1498C12.66 12.1498 13.14 12.4798 13.14 13.0698C13.14 13.6698 12.66 13.9998 12 13.9998Z" />
</svg>

<?xml version="1.0" encoding="UTF-8"?>
<svg width="24" height="24" viewBox="0 0 24 24" xmlns="http://www.w3.org/2000/svg">
 <path d="m8 1.25c0.41421 0 0.75 0.33579 0.75 0.75v3c0 0.41421-0.33579 0.75-0.75 0.75s-0.75-0.33579-0.75-0.75v-3c0-0.41421 0.33579-0.75 0.75-0.75z" clip-rule="evenodd" fill-rule="evenodd"/>
 <path d="m16 1.25c0.4142 0 0.75 0.33579 0.75 0.75v3c0 0.41421-0.3358 0.75-0.75 0.75s-0.75-0.33579-0.75-0.75v-3c0-0.41421 0.3358-0.75 0.75-0.75z" clip-rule="evenodd" fill-rule="evenodd"/>
 <path d="m21.5 8.37v8.76c0 0.16-0.01 0.32-0.02 0.47h-18.96c-0.01-0.15-0.02-0.31-0.02-0.47v-8.76c0-2.69 2.18-4.87 4.87-4.87h9.26c2.69 0 4.87 2.18 4.87 4.87z" opacity=".4"/>
 <path d="m21.48 17.6c-0.24 2.47-2.32 4.4-4.85 4.4h-9.26c-2.53 0-4.61-1.93-4.85-4.4h18.96z"/>
 <path d="m13.53 11.62c0.45-0.31 0.73-0.77 0.73-1.39 0-1.3-1.04-1.97-2.26-1.97s-2.27 0.66999-2.27 1.97c0 0.62 0.29 1.09 0.73 1.39-0.61 0.36-0.96 0.94-0.96 1.62 0 1.24 0.95 2.01 2.5 2.01 1.54 0 2.5-0.77 2.5-2.01 0-0.68-0.35-1.27-0.97-1.62zm-1.53-2.12c0.52 0 0.9 0.29 0.9 0.79003 0 0.49-0.38 0.8-0.9 0.8s-0.9-0.31-0.9-0.8c0-0.50003 0.38-0.79003 0.9-0.79003zm0 4.5c-0.66 0-1.14-0.33-1.14-0.93s0.48-0.92 1.14-0.92 1.14 0.33 1.14 0.92c0 0.6-0.48 0.93-1.14 0.93z"/>
</svg>
